img/logo5.svg

<svg enable-background="new 0 0 47.5 47.5" viewBox="0 0 47.5 47.5" xmlns="http://www.w3.org/2000/svg" xmlns:xlink="http://www.w3.org/1999/xlink"><clipPath id="a"><path d="m0 38h38v-38h-38z"/></clipPath><g clip-path="url(#a)" transform="matrix(1.25 0 0 -1.25 0 47.5)"><path d="m0 0c0-4.695-3.805-8.5-8.5-8.5s-8.5 3.805-8.5 8.5 3.805 8.5 8.5 8.5 8.5-3.805 8.5-8.5" fill="#4da7ff" transform="translate(18 27.5)"/><path d="m0 0c0-4.695-3.806-8.5-8.5-8.5s-8.5 3.805-8.5 8.5 3.806 8.5 8.5 8.5 8.5-3.805 8.5-8.5" fill="#4da7ff" transform="translate(37 27.5)"/><path d="m0 0c-1.264 1.621-3.229 2.667-5.443 2.667-3.814 0-6.907-3.093-6.907-6.907 0-2.773 1.639-5.157 3.996-6.256.71 4.196 3.984 8.673 8.354 10.496" fill="#1a4876" transform="translate(14.9121 31.146)"/><path d="m0 0c-2.214 0-4.18-1.046-5.443-2.667 4.369-1.823 7.643-6.3 8.353-10.496 2.358 1.099 3.996 3.484 3.996 6.257 0 3.813-3.093 6.906-6.906 6.906" fill="#1a4876" transform="translate(28.5313 33.8125)"/><path d="m0 0c-2 10.045-11.333 6.5-16 6.5s-14 3.545-16-6.5c-1.295-6.504 3.794-9.879 9.032-11.387 1.65-1.232 4.158-2.02 6.968-2.02 2.811 0 5.318.788 6.969 2.021 5.237 1.508 10.326 4.882 9.031 11.386" fill="#b6e9ff" transform="translate(35 14.4072)"/><path d="m0 0c0-11-5.641-6-12.6-6s-12.6-5-12.6 6c0 5.799 5.641 13 12.6 13s12.6-7.201 12.6-13" fill="#4da7ff" transform="translate(31.5996 19)"/><path d="m0 0c0-1.604-2.012-3.352-2.905-3.352-.894 0-2.906 1.748-2.906 3.352 0 1.605 1.788 1.956 2.906 1.956 1.117 0 2.905-.351 2.905-1.956" fill="#ff3860" transform="translate(21.9053 9.0439)"/><path d="m0 0c-5.245 3.146-12.355 2.175-12.656 2.133-.014-.002-.024-.011-.037-.013-.081-.015-.154-.048-.228-.081-.046-.021-.093-.035-.134-.061-.06-.04-.107-.092-.158-.144-.041-.041-.084-.076-.117-.123-.036-.052-.056-.111-.082-.17-.027-.062-.058-.121-.071-.189-.004-.016-.015-.029-.018-.045-.009-.055.006-.106.006-.16-.001-.048-.016-.094-.009-.145.002-.016.012-.027.015-.042.012-.069.041-.13.067-.193.025-.06.044-.121.079-.173.029-.044.068-.076.102-.115.053-.058.103-.115.168-.159.038-.026.083-.041.125-.061.074-.036.146-.071.228-.087.015-.003.027-.013.041-.016.056-.01 5.636-.976 8.365-4.613.196-.263.496-.4.8-.4.209 0 .419.065.599.2.442.331.532.958.2 1.399-1.108 1.479-2.573 2.567-4.025 3.369 1.88-.242 3.942-.764 5.711-1.826.161-.097.339-.142.513-.142.34 0 .671.172.859.485.284.474.131 1.088-.343 1.372" fill="#1458ab" transform="translate(36.5146 6.6973)"/><path d="m0 0c.034.052.053.111.077.169.027.064.055.124.068.193.003.016.013.029.016.044.007.053-.009.103-.009.155-.001.05.014.099.005.151-.003.016-.013.027-.016.043-.016.069-.046.131-.075.194-.025.057-.045.115-.08.165-.032.047-.075.082-.115.123-.051.053-.099.106-.16.146-.041.025-.087.039-.131.059-.075.035-.147.067-.23.081-.014.003-.024.012-.037.014-.302.042-7.413 1.014-12.657-2.133-.473-.284-.627-.898-.343-1.372.188-.312.519-.485.859-.485.175 0 .352.046.514.142 1.768 1.061 3.83 1.583 5.709 1.826-1.452-.802-2.916-1.89-4.024-3.369-.331-.441-.242-1.068.2-1.399.18-.135.39-.2.599-.2.304 0 .604.138.801.4 2.717 3.622 8.309 4.604 8.365 4.614.015.002.026.011.04.015.077.016.145.049.215.082.048.023.098.039.141.07.059.04.104.092.153.143.04.043.083.08.115.129" fill="#1458ab" transform="translate(14.8291 7.293)"/><g fill="#272b2b"><path d="m0 0s0 2 2 2 2-2 2-2v-2s0-2-2-2-2 2-2 2z" transform="translate(11 17)"/><path d="m0 0s0 2 2 2 2-2 2-2v-2s0-2-2-2-2 2-2 2z" transform="translate(23 17)"/></g></g></svg>

<?xml version="1.0" encoding="UTF-8" standalone="no"?>
<svg xmlns:dc="http://purl.org/dc/elements/1.1/" xmlns:cc="http://creativecommons.org/ns#" xmlns:rdf="http://www.w3.org/1999/02/22-rdf-syntax-ns#" xmlns:svg="http://www.w3.org/2000/svg" xmlns="http://www.w3.org/2000/svg" viewBox="0 0 47.5 47.5" style="enable-background:new 0 0 47.5 47.5;" xml:space="preserve" version="1.1" id="svg2">
   <metadata id="metadata8">
      <rdf:RDF>
         <cc:Work rdf:about="">
            <dc:format>image/svg+xml</dc:format>
            <dc:type rdf:resource="http://purl.org/dc/dcmitype/StillImage"/>
         </cc:Work>
      </rdf:RDF>
   </metadata>
   <defs id="defs6">
      <clipPath id="clipPath16" clipPathUnits="userSpaceOnUse">
         <path id="path18" d="M 0,38 38,38 38,0 0,0 0,38 Z"/>
      </clipPath>
   </defs>
   <g transform="matrix(1.25,0,0,-1.25,0,47.5)" id="g10">
      <g id="g12">
         <g clip-path="url(#clipPath16)" id="g14">
            <g transform="translate(18,27.5)" id="g20">
               <path id="path22" style="fill:#4da7ff;fill-opacity:1;fill-rule:nonzero;stroke:none" d="m 0,0 c 0,-4.695 -3.805,-8.5 -8.5,-8.5 -4.695,0 -8.5,3.805 -8.5,8.5 0,4.695 3.805,8.5 8.5,8.5 C -3.805,8.5 0,4.695 0,0"/>
            </g>
            <g transform="translate(37,27.5)" id="g24">
               <path id="path26" style="fill:#4da7ff;fill-opacity:1;fill-rule:nonzero;stroke:none" d="m 0,0 c 0,-4.695 -3.806,-8.5 -8.5,-8.5 -4.694,0 -8.5,3.805 -8.5,8.5 0,4.695 3.806,8.5 8.5,8.5 C -3.806,8.5 0,4.695 0,0"/>
            </g>
            <g transform="translate(14.9121,31.146)" id="g28">
               <path id="path30" style="fill:#1a4876;fill-opacity:1;fill-rule:nonzero;stroke:none" d="m 0,0 c -1.264,1.621 -3.229,2.667 -5.443,2.667 -3.814,0 -6.907,-3.093 -6.907,-6.907 0,-2.773 1.639,-5.157 3.996,-6.256 C -7.644,-6.3 -4.37,-1.823 0,0"/>
            </g>
            <g transform="translate(28.5313,33.8125)" id="g32">
               <path id="path34" style="fill:#1a4876;fill-opacity:1;fill-rule:nonzero;stroke:none" d="m 0,0 c -2.214,0 -4.18,-1.046 -5.443,-2.667 4.369,-1.823 7.643,-6.3 8.353,-10.496 2.358,1.099 3.996,3.484 3.996,6.257 C 6.906,-3.093 3.813,0 0,0"/>
            </g>
            <g transform="translate(35,14.4072)" id="g36">
               <path id="path38" style="fill:#b6e9ff;fill-opacity:1;fill-rule:nonzero;stroke:none" d="m 0,0 c -2,10.045 -11.333,6.5 -16,6.5 -4.667,0 -14,3.545 -16,-6.5 -1.295,-6.504 3.794,-9.879 9.032,-11.387 1.65,-1.232 4.158,-2.02 6.968,-2.02 2.811,0 5.318,0.788 6.969,2.021 C -3.794,-9.878 1.295,-6.504 0,0"/>
            </g>
            <g transform="translate(31.5996,19)" id="g40">
               <path id="path42" style="fill:#4da7ff;fill-opacity:1;fill-rule:nonzero;stroke:none" d="m 0,0 c 0,-11 -5.641,-6 -12.6,-6 -6.959,0 -12.6,-5 -12.6,6 0,5.799 5.641,13 12.6,13 C -5.641,13 0,5.799 0,0"/>
            </g>
            <g transform="translate(21.9053,9.0439)" id="g44">
               <path id="path46" style="fill:#ff3860;fill-opacity:1;fill-rule:nonzero;stroke:none" d="m 0,0 c 0,-1.604 -2.012,-3.352 -2.905,-3.352 -0.894,0 -2.906,1.748 -2.906,3.352 0,1.605 1.788,1.956 2.906,1.956 C -1.788,1.956 0,1.605 0,0"/>
            </g>
            <g transform="translate(36.5146,6.6973)" id="g48">
               <path id="path50" style="fill:#1458ab;fill-opacity:1;fill-rule:nonzero;stroke:none" d="M 0,0 C -5.245,3.146 -12.355,2.175 -12.656,2.133 -12.67,2.131 -12.68,2.122 -12.693,2.12 -12.774,2.105 -12.847,2.072 -12.921,2.039 -12.967,2.018 -13.014,2.004 -13.055,1.978 -13.115,1.938 -13.162,1.886 -13.213,1.834 -13.254,1.793 -13.297,1.758 -13.33,1.711 -13.366,1.659 -13.386,1.6 -13.412,1.541 -13.439,1.479 -13.47,1.42 -13.483,1.352 c -0.004,-0.016 -0.015,-0.029 -0.018,-0.045 -0.009,-0.055 0.006,-0.106 0.006,-0.16 -0.001,-0.048 -0.016,-0.094 -0.009,-0.145 0.002,-0.016 0.012,-0.027 0.015,-0.042 0.012,-0.069 0.041,-0.13 0.067,-0.193 0.025,-0.06 0.044,-0.121 0.079,-0.173 0.029,-0.044 0.068,-0.076 0.102,-0.115 0.053,-0.058 0.103,-0.115 0.168,-0.159 0.038,-0.026 0.083,-0.041 0.125,-0.061 0.074,-0.036 0.146,-0.071 0.228,-0.087 0.015,-0.003 0.027,-0.013 0.041,-0.016 0.056,-0.01 5.636,-0.976 8.365,-4.613 0.196,-0.263 0.496,-0.4 0.8,-0.4 0.209,0 0.419,0.065 0.599,0.2 0.442,0.331 0.532,0.958 0.2,1.399 -1.108,1.479 -2.573,2.567 -4.025,3.369 1.88,-0.242 3.942,-0.764 5.711,-1.826 0.161,-0.097 0.339,-0.142 0.513,-0.142 0.34,0 0.671,0.172 0.859,0.485 C 0.627,-0.898 0.474,-0.284 0,0"/>
            </g>
            <g transform="translate(14.8291,7.293)" id="g52">
               <path id="path54" style="fill:#1458ab;fill-opacity:1;fill-rule:nonzero;stroke:none" d="M 0,0 C 0.034,0.052 0.053,0.111 0.077,0.169 0.104,0.233 0.132,0.293 0.145,0.362 0.148,0.378 0.158,0.391 0.161,0.406 0.168,0.459 0.152,0.509 0.152,0.561 0.151,0.611 0.166,0.66 0.157,0.712 0.154,0.728 0.144,0.739 0.141,0.755 0.125,0.824 0.095,0.886 0.066,0.949 0.041,1.006 0.021,1.064 -0.014,1.114 -0.046,1.161 -0.089,1.196 -0.129,1.237 -0.18,1.29 -0.228,1.343 -0.289,1.383 -0.33,1.408 -0.376,1.422 -0.42,1.442 -0.495,1.477 -0.567,1.509 -0.65,1.523 -0.664,1.526 -0.674,1.535 -0.687,1.537 -0.989,1.579 -8.1,2.551 -13.344,-0.596 c -0.473,-0.284 -0.627,-0.898 -0.343,-1.372 0.188,-0.312 0.519,-0.485 0.859,-0.485 0.175,0 0.352,0.046 0.514,0.142 1.768,1.061 3.83,1.583 5.709,1.826 -1.452,-0.802 -2.916,-1.89 -4.024,-3.369 -0.331,-0.441 -0.242,-1.068 0.2,-1.399 0.18,-0.135 0.39,-0.2 0.599,-0.2 0.304,0 0.604,0.138 0.801,0.4 2.717,3.622 8.309,4.604 8.365,4.614 0.015,0.002 0.026,0.011 0.04,0.015 0.077,0.016 0.145,0.049 0.215,0.082 0.048,0.023 0.098,0.039 0.141,0.07 0.059,0.04 0.104,0.092 0.153,0.143 0.04,0.043 0.083,0.08 0.115,0.129"/>
            </g>
            <g transform="translate(11,17)" id="g56">
               <path id="path58" style="fill:#272b2b;fill-opacity:1;fill-rule:nonzero;stroke:none" d="M 0,0 C 0,0 0,2 2,2 4,2 4,0 4,0 l 0,-2 c 0,0 0,-2 -2,-2 -2,0 -2,2 -2,2 l 0,2 z"/>
            </g>
            <g transform="translate(23,17)" id="g60">
               <path id="path62" style="fill:#272b2b;fill-opacity:1;fill-rule:nonzero;stroke:none" d="M 0,0 C 0,0 0,2 2,2 4,2 4,0 4,0 l 0,-2 c 0,0 0,-2 -2,-2 -2,0 -2,2 -2,2 l 0,2 z"/>
            </g>
         </g>
      </g>
   </g>
</svg>
